!!!COM: Bach, Johann Sebastian
!!!CDT: 1685/3//-1750/7/28/
!!!OTL@@DE: Sei Lob und Ehr' dem hoechsten Gut
!!!AGN: 4-Part Chorale
!!!SCT: BH 354
!!!SCT: BWV 117
**harm	**root	**kern	**kern	**kern	**kern
!	!	!bass	!tenor	!alto	!soprno
*	*Iorgan	*Iorgan	*Iorgan	*Iorgan	*Iorgan
*M4/4	*M4/4	*M4/4	*M4/4	*M4/4	*M4/4
*met(c)	*met(c)	*met(c)	*met(c)	*met(c)	*met(c)
*MM60	*MM60	*MM60	*MM60	*MM60	*MM60
*k[f#c#g#d#]	*k[f#c#g#d#]	*k[f#c#g#d#]	*k[f#c#g#d#]	*k[f#c#g#d#]	*k[f#c#g#d#]
*E:	*E:	*E:	*E:	*E:	*E:
*>[A,A,B]	*>[A,A,B]	*>[A,A,B]	*>[A,A,B]	*>[A,A,B]	*>[A,A,B]
*>A	*>A	*>A	*>A	*>A	*>A
Vb	4DD	4D#	8B	4f#	4b
.	.	.	8A	.	.
=1	=1	=1	=1	=1	=1
I	4GG	4E	4G#	4e	4b
V	4DD	4BB	4F#	8e	4b
.	.	.	.	8d#	.
I	4GG	4EE	4G#	4e	8b
.	.	.	.	.	8cc#
-VIIb	8FF	8FF#	4F#	8A	4dd
iiio7	8BB	8GG#	.	8B	.
=2	=2	=2	=2	=2	=2
IV	4CC	4AA	8E	8.c#	4cc#
.	.	.	8A	.	.
.	.	.	.	16d	.
I	4GG	4EE	8A	4e	4b
.	.	.	8G#	.	.
IV;	4CC;	4AA;	4c#;	4e;	4a;
Vb	4DD	4D#	4B	4f#	4b
=3	=3	=3	=3	=3	=3
I	4GG	4.E	8B	4e	8g#
.	.	.	8A	.	8f#
I	8GG	.	8G#	4B	8e
Vb	8DD	8D#	8F#	.	8f#
vi	4EE	8C#	4E	8e	4g#
.	.	8D#	.	8d#	.
V/V	4AA	8E	4F#	4c#	4a#
.	.	8F#	.	.	.
=4	=4	=4	=4	=4	=4
Vb	8DD	8D#	8F#	8f#	4b
V	8DD	8BB	4B	8d#	.
V7/V	4AA	4F#	.	4e	4cc#
.	.	.	8A#	.	.
V;	4DD;	4BB;	4B;	4d#;	4b;
=:|!	=:|!	=:|!	=:|!	=:|!	=:|!
*>B	*>B	*>B	*>B	*>B	*>B
I	4GG	8E	4B	4g#	4b
.	.	8F#	.	.	.
!!linebreak: 2
=5	=5	=5	=5	=5	=5
Ib	4GG	8G#	8B	4g#	4ee
.	.	8A#	8c#	.	.
V	4DD	4B	8d#	8f#	4dd#
.	.	.	8e	8g#	.
V/V	4AA	4F#	8f#	4a#	4cc#
.	.	.	8e	.	.
Vb/iii	4FF#	4F##	8d#	4a#	4dd#
.	.	.	8c#	.	.
=6	=6	=6	=6	=6	=6
Ib	4GG	8G#	4B	4b	8ee
.	.	8E	.	.	8dd#
V/V	4AA	4F#	4A#	8f#	4cc#
.	.	.	.	8e	.
V;	4DD;	4BB;	4F#;	4d#;	4b;
I	4GG	8E	4G#	4e	4b
.	.	8D#	.	.	.
=7	=7	=7	=7	=7	=7
vi	4EE	8C#	8G#	4e	4ee
.	.	8BB	8A	.	.
Ib	4GG	8AA	4B	4e	4b
.	.	8GG#	.	.	.
IV	4CC	8AA	4A	4e	4cc#
.	.	8BB	.	.	.
vi	4EE	4C#	8E	4e	8g#
.	.	.	8c#	.	8a
=8	=8	=8	=8	=8	=8
Vb	8DD	8D#	8B	8f#	4b
vii/ii	8GG#	8E#	8G#	8g#	.
ii	4AA	4F#	8A	8c#	4a
.	.	.	16c#	8f#	.
.	.	.	16B#	.	.
VI;	4EE;	4C#;	4c#;	4e#;	4g#;
I	4GG	4E	4B	4e	4g#
=9	=9	=9	=9	=9	=9
Vb	4DD	4D#	4B	4f#	8f#
.	.	.	.	.	8g#
IVb	8CC	8C#	4c#	8e	4a
vii7	8FF#	8D#	.	8f#	.
I	4GG	4E	4B	8g#	4g#
.	.	.	.	8e	.
iib	4AA	4AA	8A	4c#	4f#
.	.	.	8G#	.	.
=10	=10	=10	=10	=10	=10
Vb/V	4AA	4AA#	2F#	4c#	4c#
V	4DD	4BB	.	4B	4d#
I;	4GG;	4EE;	4G#;	4B;	4e;
==	==	==	==	==	==
*-	*-	*-	*-	*-	*-
!!!ONB: Near duplicate with erk248.krn
!!chor2scor: -l 2 -o %b.pmx
!!!YEC: Copyright 1994, David Huron
!!!YEC: Changes/Additions 2001 by Craig Stuart Sapp
!!!YEN: United States of America
!!!SMA: 371 Bach Chorales, edited by Ludwig Erk, C.F. Peters
!!!PDT: 1850, 1865
!!!ONB: Harmony and Root analysis done manually
